swiss/communes/2858.svg

<svg xmlns="http://www.w3.org/2000/svg" xmlns:xlink="http://www.w3.org/1999/xlink" width="540" height="620"><defs><clipPath id="b"><path d="M9 9h522v341a261 261 0 0 1-522 0z"/></clipPath></defs><path d="M4.5 4.5h531V350a265.5 265.5 0 0 1-531 0z" stroke="#000" stroke-width="9" fill="#ffd400"/><g stroke="#000" stroke-width="4" fill="#00901e"><g id="a"><path d="M78 431v-87h21v87" fill="#e2001a"/><path d="m88 353-76 18 36-64-16 2 35-67-14 1 35-87 35 87-14-1 34 67-16-2 28 61z"/></g><use xlink:href="#a" transform="matrix(-1 0 0 1 540 0)"/><path d="m155 460 15-350 100-40 100 40 15 350" fill="#e2001a"/><path d="m230 430 5-370h70l5 370" fill="#e2001a"/><path d="M18 620V506a92 92 0 1 1 184 0h136a92 92 0 1 1 184 0v114" clip-path="url(#b)"/><path d="M186 556a100 92 0 1 1 168 0"/></g></svg>

<?xml version="1.0" encoding="utf-8" standalone="no"?>
<!DOCTYPE svg PUBLIC "-//W3C//DTD SVG 1.1//EN" "http://www.w3.org/Graphics/SVG/1.1/DTD/svg11.dtd">
<svg version="1.1"
   xmlns="http://www.w3.org/2000/svg"
   xmlns:xlink="http://www.w3.org/1999/xlink"
   width="540" height="620" viewBox="0,0 540,620">
  <title>Wappen von Rothenfluh</title>
  <desc>Wappen der Schweizer Gemeinde Rothenfluh, Kanton Baselland</desc>
  <defs>
    <clipPath id="cpSchild"> <path d="M 9,9 H 531 V 350 A 261,261 0 0,1 9,350 z" /> </clipPath>
  </defs>
  <path d="M 4.5,4.5 h 531 V 350 A 265.5,265.5 0 0,1 4.5,350 z" stroke="black" stroke-width="9" fill="#ffd400" />
  <g stroke="black" stroke-width="4" fill="#00901e">
    <g id="baum">
      <path d="M 78,431 V 344 h 21 v 87" fill="#e2001a" />
      <path d="M 88,353 l -76,18 36,-64 -16,2 35,-67 -14,1 35,-87 35,87 -14,-1 34,67 -16,-2 28,61 z" />
    </g>
    <use xlink:href="#baum" transform="matrix(-1,0,0,1,540,0)" />
    <path d="M 155,460 L 170,110 270,70 370,110 385,460" fill="#e2001a" />
    <path d="M 230,430 L 235,60 h 70 L 310,430" fill="#e2001a" />
    <path d="M 18,620 V 506 a 92,92 0 1,1 184,0 H 338 a 92,92 0 1,1 184,0 V 620" clip-path="url(#cpSchild)" />
    <path d="M 186,556 a 100,92 0 1,1 168,0" />
  </g>
</svg>
